X: 1
T: Lord Rosslyn's Fancy    [Bb]
R: jig
B: RSCDS 15-6
Z: 1997 by John Chambers <jc:trillian.mit.edu>
M: 6/8
L: 1/8
K: Bb
B \
| "Bb"FGB d2B | "F7"c2B "Bb"d2B | "(F)"FGA "Eb"B2g | "Bb"fdB "F7"c2B \
| "Bb"FGB d2B | "F7"c2B "Bb"d2B | "(F)"FGA "Gm"B2g | "Bb"fdB "F7"c2 ||
|| (3f/g/a/ \
| "Bb"b2B a2B | "Eb"g2B "Bb"fdB | "Eb"G2B "Bb"F2g | "C7"fdB "F7"c2 (3f/g/a/ \
| "Bb"b2B a2B | "Eb"g2B "Bb"fdB | "Eb"BAG "Bb"FDF | "Eb"G<BB "Bb"B2 |] [b2D2]
%%center Book15/LordRosslynsFancyJ-JC.abc

%%sep 1 1 500
%%sep 1 1 500

